src/img/medium.svg

<svg width="15" height="15" viewBox="0 0 15 15" fill="none" xmlns="http://www.w3.org/2000/svg">
<g clip-path="url(#clip0)">
<path d="M14.2396 2.92605C14.2375 2.92523 14.2354 2.92424 14.2334 2.92364L10.6396 1.88624C9.98788 1.63548 9.2412 1.87427 8.85672 2.45942C8.85429 2.46314 8.85191 2.46689 8.84959 2.47066L6.95704 5.56537L5.88118 3.71018C5.8809 3.70972 5.88049 3.70936 5.88022 3.7089C5.84183 3.64327 5.78539 3.58828 5.71536 3.55194L2.70949 1.99108C2.24301 1.7489 1.69638 1.76719 1.24718 2.04011C0.797973 2.31297 0.529785 2.78971 0.529785 3.31528V9.9818C0.529785 10.5537 0.848312 11.0663 1.36109 11.3196L3.78366 12.5162C3.99418 12.6202 4.22015 12.6718 4.44536 12.6718C4.71836 12.6718 4.99021 12.596 5.23198 12.4457C5.67314 12.1716 5.93655 11.6978 5.93655 11.1784V10.2312L9.55229 11.4762L12.5519 12.5091C12.7135 12.5647 12.8788 12.5921 13.0425 12.5921C13.3468 12.5921 13.6457 12.4974 13.9042 12.313C14.3018 12.0294 14.5298 11.5867 14.5298 11.0983V3.31829C14.5298 3.1335 14.4076 2.97734 14.2396 2.92605ZM9.54557 2.90496C9.72147 2.64224 10.0606 2.53735 10.3544 2.65551C10.3673 2.66067 10.3804 2.66519 10.3937 2.66904L13.5051 3.56717L9.68297 10.2658L7.42509 6.37242L9.54557 2.90496ZM5.11621 11.1784C5.11621 11.4158 5.00057 11.6237 4.79899 11.749C4.59736 11.8743 4.35971 11.8858 4.14693 11.7807L1.72438 10.5841C1.49352 10.4701 1.3501 10.2393 1.3501 9.9818V3.31528C1.3501 3.07512 1.46781 2.86583 1.67308 2.74115C1.78227 2.67481 1.90129 2.64148 2.02087 2.64148C2.12606 2.64148 2.23169 2.66726 2.33146 2.71908L5.11623 4.1651V11.1784H5.11621ZM5.93652 9.36364V5.44082L6.59187 6.57089C6.5925 6.57201 6.59315 6.5731 6.59381 6.57422L8.77907 10.3424L5.93652 9.36364ZM13.4278 11.6452C13.2488 11.7729 13.0269 11.8051 12.819 11.7335L10.2873 10.8618L13.7095 4.86417V11.0983C13.7095 11.3182 13.6068 11.5175 13.4278 11.6452Z" fill="#D1C1EC"/>
</g>
<defs>
<clipPath id="clip0">
<rect width="14" height="14" fill="white" transform="translate(0.529785 0.229492)"/>
</clipPath>
</defs>
</svg>

<svg width="15" height="15" fill="none" xmlns="http://www.w3.org/2000/svg"><g clip-path="url(#a)"><path d="m14.24 2.926-.007-.002-3.593-1.038a1.497 1.497 0 0 0-1.79.585L6.957 5.565 5.881 3.71a.41.41 0 0 0-.166-.157L2.71 1.992a1.481 1.481 0 0 0-1.462.048A1.48 1.48 0 0 0 .53 3.315v6.667c0 .572.318 1.084.831 1.338l2.423 1.196a1.492 1.492 0 0 0 2.153-1.338v-.947l3.615 1.245 3 1.033a1.478 1.478 0 0 0 1.352-.196c.398-.284.626-.726.626-1.215v-7.78a.41.41 0 0 0-.29-.392Zm-4.694-.021a.674.674 0 0 1 .808-.25.42.42 0 0 0 .04.014l3.111.898-3.822 6.699-2.258-3.894 2.12-3.467Zm-4.43 8.273a.66.66 0 0 1-.317.571.66.66 0 0 1-.652.032l-2.423-1.197a.668.668 0 0 1-.374-.602V3.315c0-.24.118-.45.323-.574a.667.667 0 0 1 .658-.022l2.785 1.446v7.013Zm.82-1.814V5.44l.656 1.13.002.003 2.185 3.768-2.842-.978Zm7.492 2.281a.664.664 0 0 1-.609.088l-2.532-.871 3.422-5.998v6.234c0 .22-.102.42-.281.547Z" fill="#D1C1EC"/></g><defs><clipPath id="a"><path fill="#fff" transform="translate(.53 .23)" d="M0 0h14v14H0z"/></clipPath></defs></svg>
